svg/Outline/person.svg

<svg viewBox="0 0 24 24" xmlns="http://www.w3.org/2000/svg" width="24" height="24"><path d="M12 13.45c1.96 0 3.89.5 5.48 1.45a7.6 7.6 0 0 1 3.22 3.6l.11.3.03.1a.9.9 0 0 1-1.7.58l-.03-.09-.08-.21a5.8 5.8 0 0 0-2.47-2.74 9 9 0 0 0-4.56-1.2c-1.67 0-3.27.44-4.56 1.2A5.7 5.7 0 0 0 4.9 19.4a.9.9 0 1 1-1.7-.59 7.5 7.5 0 0 1 3.33-3.9A11 11 0 0 1 12 13.45"/><path fill-rule="evenodd" d="M12 1a5.5 5.5 0 1 1 0 11 5.5 5.5 0 0 1 0-11m0 1.8a3.7 3.7 0 1 0 0 7.4 3.7 3.7 0 0 0 0-7.4" clip-rule="evenodd"/></svg>

<svg viewBox="0 0 24 24" xmlns="http://www.w3.org/2000/svg" width="24" height="24"><path d="M12 13.45C13.96 13.45 15.89 13.95 17.48 14.9A7.6 7.6 0 0 1 20.7 18.5L20.84 18.9A.9 .9 0 0 1 19.14 19.48L19.03 19.18A5.8 5.8 0 0 0 16.56 16.44A9 9 0 0 0 12 15.24C10.33 15.24 8.73 15.68 7.44 16.44A5.7 5.7 0 0 0 4.9 19.4A.9 .9 0 1 1 3.2 18.81A7.5 7.5 0 0 1 6.53 14.91A11 11 0 0 1 12 13.45"/><path fill-rule="evenodd" d="M12 1a5.5 5.5 0 1 1 0 11 5.5 5.5 0 0 1 0-11m0 1.8a3.7 3.7 0 1 0 0 7.4 3.7 3.7 0 0 0 0-7.4" clip-rule="evenodd"/></svg>
